X:1
T:Title
%%score { ( 1 3 ) | 2 }
L:1/8
M:4/4
K:Eb
V:1 treble nm="Grand Piano"
V:3 treble 
V:2 bass 
V:1
 z4 z2 z[Q:1/4=100] E | G>G G>[FA] [GB]>[GB] [GB]>G | A>c e>c [GB]3 [AB] | %3
 [Ad]>[Ad] [Ad]>[AB] [Ad]>[Ad] [Ad]>[AB] |[M:7/8] [Ac]>[AB][Ac]>[AB] [GB]3 |[M:1/8] [GB] | %6
[M:4/4] G2 G2 G2 G2 | [GB]>[FA] [FA]>[=EG] [FA]3 [FA] | F2 F2 F2 z2 | %9
 [Ac]>[GB] [GB]>[FA] [EG]3 [GB] | G2 A2 e4 | d2 c2 c4 | B2 c2 d2 B2 | %13
[M:17/16] B>Bc>d[Ge]/-[Ge]/-[Ge]/-[Ge]/-[Ge]/-[Ge]-<[Ge] |] %14
V:2
 z4 z2 z [E,G,] | [E,B,E]>[E,B,E] [E,B,E]>[E,B,] [E,E]>[E,E] [E,E]>[E,B,E] | %2
 [A,CE]>[A,EA] [A,CA]>[A,EA][K:bass] [E,E]3 [F,D] | %3
 [F,B,]>[F,B,] [F,B,]>[F,D] [F,B,]>[F,B,] [F,B,]>[F,D] |[M:7/8] [F,E]>[F,D][F,E]>[F,D] [E,E]3 | %5
[M:1/8] [E,E] |[M:4/4] [E,B,E]>[E,B,] [E,B,E]>[E,B,] [E,B,E]>[E,B,] [E,B,E]>[E,B,] | %7
 [B,,B,]>[B,,B,] [B,,B,]>[B,,B,] [B,,B,]3 [B,,B,] | %8
 [B,,B,]>[B,,B,] [B,,B,]>[B,,B,] [B,,B,]>[B,,B,] [B,,B,]>[B,,B,] | %9
 [B,,B,]>[B,,B,] [B,,B,]>[B,,B,] [E,B,]3 [E,E] | %10
 [E,B,]>[E,B,] [E,C]>[E,C] [E,B,]>[E,B,] [E,B,]>[E,E] | %11
 [A,EA]>[A,E] [A,EA]>[A,E] [A,EA]>[A,E] [A,E]>[A,EA] | %12
 [B,DA]>[B,D] [B,EA]>[B,E] [B,FA]>[B,F] [B,DA]>[B,D] | %13
[M:17/16] [B,DA]>[B,DA][B,EA]>[B,FA][K:bass][E,E]/-[E,E]/-[E,E]/-[E,E]/-[E,E]/-[E,E]-<[E,E] |] %14
V:3
 x8 | x8 | x8 | x8 |[M:7/8] x7 |[M:1/8] x |[M:4/4] z z/ E/ z z/ E/ z z/ E/ z z/ E/ | x8 | %8
 D>D D>D D>D [DF]>[DF] | x8 | e->[Ge] e->[Ae] G>G G>[GB] | z z/ A/ z z/ A/ z z/ A/ A>c | %12
 z z/ A/ z z/ A/ z z/ A/ z z/ A/ |[M:17/16] x17/2 |] %14

